X:200
T:Banks of the Liffey, The
T:Liffey Banks, The
R:reel
D:Davy Spillane: Shadow Hunter
Z:id:hn-reel-200
M:C|
K:G
BGGF GBdB|cBcd gedc|B2GB ABGE|DEGB AGEF|
GDBD GBdB|cBcd gedc|~B3G AFGE|DEGB AGEF|
~G3F GBdB|cBcd gedc|BdGB ABGE|DEGB AGEF|
GDBD GBdB|cBcd gedc|~B3G AFGE|DEGB AGef||
gage dGBd|gabg agef|~g3e dGBd|gabg agef|
~g3e dGBd|ga~a2 agef|gabg efge|dedc Bdef|
gage dGBd|gabc' bgef|~g3e dGBd|gabg agef|
~g3e dGBd|ga~a2 agef|gabg efge|dedc BcdB||

